X: 10422
M: 3/4
L: 1/8
K: G
(udc) |\
c2 "^Pizz."[E2G,2] [E2G,2] | c2 "^Pizz."[E2G,2] [E2G,2] | c2 "^Pizz."[E2G,2] [E2G,2] | vcBdcB^A |
c2 "^Pizz."[E2G,2] [E2G,2] | c2 "^Pizz."[E2G,2] [E2G,2] | cBdcBA | G4 :|
(uBc) |\
(d4 c2 ) | (e4 d2) | b6 | (b4 c'2) |\
(b4 a2) | (e4 f2) | gfgabg | d4 (Bc) |
(d4 c2) | (e4 d2) | b6 | (b4 c'2) |\
(b4 a2) | (e4 f2) | g2 {a}g>fg>a "_D.C."| g2 "_Fine"z2 |]


